X:1
T:Faith of Our Fathers (St. Catherine)
T:Faith of Our Fathers (St. Catherine)
T:For NREC 2019
T:Henry F. Hemy (1818-1888), adapt. by James G. Walton (1821-1905) 
T:Frederick W. Faber (1814-1863)
C:Henry F. Hemi (1818-1888), adapt. by James G. Walton (1821-1905)
Z:Frederick W. Faber (1814-1863)
%%score 1 [ ( 2 3 ) ( 4 5 ) ]
L:1/8
Q:1/4=150
M:3/4
K:G
V:1 treble transpose=24 nm="Glockenspiel" snm="Glock."
V:2 treble nm="Violin I"
V:3 treble 
V:4 bass nm="Violoncello"
V:5 bass 
V:1
 [Gd]2 z4 | [Gd]2 z2 [Gd]2 | [Ge]2 z2 [Fd]2 | [Gd]3 D GB | [Ec]2 z4 | [Gd]2 z4 | [E^c]2 z2 [Ec]2 | %7
 [Fd]3 D FA | [Gd]2 z4 | [Gd]2 z2 [Gd]2 | [Ge]2 z2 [Fd]2 | [EB]3 B, GB | [Ec]2 z4 | [Gd]2 z4 | %14
 c2 d2 D2 | [Gd]6 | [Ge]3 G ce | [Bd]3 D Gd | [Fc]4 c2 | [GB]2 D2 d2 | [Gd]2 z2 z2 | [Ec]2 z4 | %22
 [Fd]2 z2 [Fd]2 | G6 |] %24
V:2
 B2 A2 G2 | (G2 F2) G2 | (A2 E2) F2 | G6 | G2 F2 E2 | D4 G2 | (G2 F2) G2 | A6 | B2 A2 G2 | %9
 (G2 F2) G2 | (A2 E2) F2 | G6 | G2 F2 E2 | D4 B2 | (A2 B2) A2 | G6 |"^Reff:" c2 c2 c2 | B4 B2 | %18
 A4 A2 | B6 | B2 A2 G2 | E4 G2 | A4 A2 | G6 |] %24
V:3
 D2 D2 D2 | D4 D2 | E4 D2 | D6 | E2 D2 C2 | B,4 D2 | ^C4 C2 | D6 | D2 D2 D2 | D4 D2 | E4 D2 | B,6 | %12
 E2 D2 C2 | B,4 D2 | E4 C2 | B,6 | G2 G2 G2 | G4 G2 | (G2 E2) F2 | G6 | B,2 C2 D2 | C4 B,2 | %22
 D4 D2 | B,6 |] %24
V:4
 D2 C2 B,2 | (B,2 C2) B,2 | C4 A,2 | B,6 | G,2 G,2 G,2 | B,4 B,2 | G,4 G,2 | F,6 | G,2 C2 B,2 | %9
 (B,2 A,2) G,2 | C4 A,2 | G,6 | G,2 G,2 G,2 | G,4 G,2 | G,4 F,2 | G,6 | C2 E2 C2 | D4 D2 | D4 D2 | %19
 D6 | G,2 G,2 G,2 | G,4 G,2 | (G,2 E,2) F,2 | G,6 |] %24
V:5
 G,2 G,2 G,2 | (G,2 A,2) G,2 | C,4 D,2 | G,,6 | C,2 C,2 C,2 | G,4 G,2 | E,4 E,2 | D,6 | %8
 G,2 G,2 G,2 | (D,2 C,2) B,,2 | A,,4 D,2 | E,6 | C,2 C,2 E,2 | G,4 B,,2 | C,2 D,4 | G,6 | %16
 E,2 C,2 E,2 | G,4 G,2 | D,4 D,2 | G,6 | G,,2 A,,2 B,,2 | C,4 E,2 | D,4 D,2 | G,,6 |] %24

